!!!COM: Vivaldi, Antonio Lucio
!!!CDT: 1678/03/04-1741/08/28
!!!OPR: 12 Sonatas for Violin and Basso continuo
!!!OTL: Sonata in A major, op. @{OPS}, no. @{ONM} (@{SCT})
!!!OPS: 2
!!!ONM: 2
!!!OMV: 2. Corrente — Adagio
!!!SCT: RV 31
!!!SCA: Antonio Vivaldi: Thematisch-systematisches Verzeichnis seiner Werke (Ryom-Verzeichnis)
!!!OMD: Allegro
!!!key: A
**kern	**fb	**kern
*part2	*	*part1
*staff2	*	*staff1
*ICklav	*	*ICstr
*Icemba	*	*Ivioln
*I"Basso continuo	*	*I"Violino
*I'bc	*	*I'v
*>[A,A,B,B,C]	*>[A,A,B,B,C]	*>[A,A,B,B,C]
*>norep[A,B,C]	*>norep[A,B,C]	*>norep[A,B,C]
*>A	*>A	*>A
*clefF4	*	*clefG2
*k[f#c#g#]	*	*k[f#c#g#]
*A:	*	*A:
*M3/8	*	*M3/8
*MM120	*	*MM120
=1	=1	=1
4A\	.	8r
.	.	8a/L
8r	.	8A/J
=2	=2	=2
4G#y\	6	8b/L
.	.	8G#y/
8r	.	8b/J
=3	=3	=3
4A\	.	8cc#y/L
.	.	8A/
8r	.	8cc#y/J
=4	=4	=4
8B\L	6	8dd/L
8E\	.	8G#y/
8G#y\J	.	8ee/J
=5	=5	=5
4A\	.	8cc#y\L
.	.	8ee\
8c#y\	.	8aa\J
=6	=6	=6
4B\	6	8r
.	.	8dd\L
8r	.	8bb\J
=7	=7	=7
4A\	.	8cc#y\L
.	.	8ee\
8c#y\	.	8aa\J
=8	=8	=8
8d\L	6 5	8r
8e\	.	8b\L
8E\J	.	8gg#y\J
=9	=9	=9
8AA\L	.	16a/LL
.	.	16e/
8A\	.	16a/
.	.	16cc#y/
8AA\J	.	16ee/
.	.	16cc#y/JJ
!!LO:LB:g=original
=10	=10	=10
8GG#y/L	6	16b/LL
.	.	16ee/
8G#y/	.	16b/
.	.	16g#y/
8GG#y/J	.	16e/
.	.	16ee/JJ
=11	=11	=11
8AA\L	.	16cc#y\LL
.	.	16a\
8A\	.	16cc#y\
.	.	16ee\
8AA\J	.	16aa\
.	.	16ee\JJ
=12	=12	=12
8BB\L	#	16dd#X\LL
.	.	16ff#y\
8d#X\	.	16bb\
.	.	16dd#y\
8D#X\J	.	16b\
.	.	16bb\JJ
=13	=13	=13
8E\L	5	16gg#y\LL
.	.	16ee\
8e\	6	16gg#y\
.	.	16ccc#y\
8E\J	.	16gg#y\
.	.	16ee\JJ
=14	=14	=14
8F#y\L	6#/	8dd#X/L
8D#X\J	.	8ff#y/
8r	.	8B/J
=15	=15	=15
8E\L	.	16r
.	.	16cc#y\LL
8C#y\J	6	16ee\
.	.	16aa\
8r	.	16ee\
.	.	16cc#y\JJ
=16	=16	=16
8D#X/L	6	8b/L
8BB/J	#	8dd#X/
8r	.	8G#y/J
=17	=17	=17
8C#y/L	6	16r
.	.	16a\LL
8AA/J	.	16cc#y\
.	.	16ff#y\
8r	.	16cc#y\
.	.	16a\JJ
=18	=18	=18
8BB/	6	8g#y/L
4GG#y/	6	8b/
.	.	8G#y/J
=19	=19	=19
4AA/	.	8cc#y/L
.	.	8A/
8A\	.	8cc#y/J
!!LO:LB:g=original
=20	=20	=20
8.B\L	#	16dd#X\LL
.	.	16cc#y\J
.	.	8b\
16A\k	.	.
8G#y\J	6	8ee\J
=21	=21	=21
8A\L	7 5	16a/LL
.	.	16g#y/J
8B\	5 4	8.f#y/T
8BB\J	#	.
.	.	16e/Jk
=22	=22	=22
4.E\	.	4.e/
=23:|!|:	=23:|!|:	=23:|!|:
*>B	*>B	*>B
4E\	.	8r
.	.	8ee/L
8r	.	8e/J
=24	=24	=24
4D#X\	6	8ff#y/L
.	.	8d#X/
8r	.	8ff#y/J
=25	=25	=25
4E\	.	8gg#y\L
.	.	8e\
8r	.	8gg#y\J
=26	=26	=26
8F#y\L	6#/	8aa\L
8BB\	.	8d#X\
8D#X\J	6	8bb\J
=27	=27	=27
8E\L	.	8gg#y\
8e\	6	[4ccc#y\
8E\J	.	.
=28	=28	=28
8D#X\L	7	8ccc#y\]
8d#X\	6	[4bb\
8D#X\J	.	.
=29	=29	=29
8C#y\L	7	8bb\]
8c#y\	6	[4aa\
8C#y\J	.	.
=30	=30	=30
8BB\L	7 #	8aa\]
8B\	6	[4gg#y\
8BB\J	.	.
=31	=31	=31
8AA\L	7	8gg#y\L]
8A\	6	16ff#y\L
.	.	16ee\
8F#y\J	6#/ 5	16dd#X\
.	.	16cc#y\JJ
!!LO:LB:g=original
=32	=32	=32
8.G#y\L	#	8.b#X/L
16F#y\k	.	16g#y/k
8E\J	6	[8cc#y/J
=33	=33	=33
8F#y\L	7 5	16cc#y\LL]
.	.	16dd#X\J
8G#y\	5#| 4	8.dd#y\t
8GG#y\J	#	.
.	.	16cc#y\Jk
=34	=34	=34
4.C#y/	.	8cc#y/L
.	.	8c#y/
.	.	8ee/J
=35	=35	=35
4.AA#X/	7nr 5	(8ggn\L
.	.	8ff#y\
.	.	8ee\J)
=36	=36	=36
4.BB/	5 n	(8dd\L
.	.	8cc#y\
.	.	8b\J)
=37	=37	=37
4.D\	6	(8ff#y\L
.	.	8dd\
.	.	8b\J)
=38	=38	=38
4.E\	6nr	(8ccn\L
.	.	8ee\
.	.	8gg\J)
=39	=39	=39
4.E\	.	(8ccn\L
.	.	8ee\
.	.	8gg\J)
=40	=40	=40
4F#y\	#	8a#X/L
.	.	8f#y/
8D\	6	8b/J
=41	=41	=41
8E/L	6 5	8c#y/L
8F#y/	5 4	8b/
8FF#y/J	#	8a#X/J
=42	=42	=42
4.BB/	.	4B/
.	.	8b\
=43	=43	=43
4.B\	.	8dd\L
.	.	8b\
.	.	8g#y\J
!!LO:LB:g=original
=44	=44	=44
4.G#y\	.	8e/L
.	.	8dd/
.	.	8b/J
=45	=45	=45
4.E\	.	8G#y/L
.	.	8ee/
.	.	8b/J
=46	=46	=46
4A\	.	16cc#y\LL
.	.	16a\
.	.	16cc#y\
.	.	16ff#y\
8A\	.	16cc#y\
.	.	16a\JJ
=47	=47	=47
8B\L	6	8g#y\L
8G#y\J	.	8b\
8r	.	8ee\J
=48	=48	=48
8A\L	.	16r
.	.	16f#y/LL
8F#y\J	.	16a/
.	.	16dd/
8r	.	16a/
.	.	16f#y/JJ
=49	=49	=49
8G#y\L	6	8e/L
8E\J	.	8g#y/
8r	.	8cc#y/J
=50	=50	=50
8F#y\L	6	16r
.	.	16d/LL
8D\J	.	16f#y/
.	.	16b/
8r	.	16f#y/
.	.	16d/JJ
=51	=51	=51
8E\L	6	16c#y/LL
.	.	16e/
8C#y\J	.	16a/
.	.	16e/
8r	.	16c#y/
.	.	16a/JJ
=52	=52	=52
8D/L	6	16B/LL
.	.	16d/
8E/	.	16g#y/
.	.	16d/
8EE/J	.	16B/
.	.	16g#y/JJ
=53	=53	=53
8AA/	.	8A/L
8r	.	8cc#y/
8A\	.	8ff#y/J
!!LO:LB:g=original
=54	=54	=54
8G#y\	6	8r
8r	.	8b\L
8G#y\	.	8ee\J
=55	=55	=55
8F#y\	5	8r
8r	.	8a\L
8F#y\	6	8dd\J
=56	=56	=56
8E\	5	8r
8r	.	8g#y/L
8E\	6	8cc#y/J
=57	=57	=57
8D\	5	8r
8r	.	8f#y/L
8D\	6	8b/J
=58	=58	=58
8C#y/	5	8r
8r	.	8e/L
8C#y/	6	8a/J
=59	=59	=59
8D/L	.	8B/L
8E/	.	8g#y/
8EE/J	.	8B/J
=60	=60	=60
4A\	.	8A/L
.	.	8a/
8r	.	8A/J
=61	=61	=61
4G#y\	6	8b/L
.	.	8G#y/
8r	.	8b/J
=62	=62	=62
4A\	.	8cc#y/L
.	.	8A/
8r	.	8cc#y/J
=63	=63	=63
8B\L	.	8dd\L
8E\	.	8G#y/
8G#y\J	.	8ee\J
=64	=64	=64
4A\	.	8cc#y\L
.	.	8ee\
8c#y\	.	8aa\J
=65	=65	=65
4B\	.	8r
.	.	8dd\L
8r	.	8bb\J
!!LO:LB:g=original
=66	=66	=66
4A\	.	8cc#y\L
.	.	8ee\
8c#y\	.	8aa\J
=67	=67	=67
8d\L	.	8r
8e\	.	8b\L
8E\J	.	8gg#y\J
=68	=68	=68
4.AA/	.	4.A/
=69:|!	=69:|!	=69:|!
*>C	*>C	*>C
!!!OMD: Adagio
*M4/4	*	*M4/4
*met(c)	*	*met(c)
*MM48	*	*MM48
1E#X\	6	4r
.	.	8r
.	.	8cc#y\
.	5	8bb\L
.	.	8bb\
.	.	8bb\
.	.	8bb\J
=70	=70	=70
4F#y\	4	(8bb\LT
.	3	8aa\J)
4r	.	16r
.	.	16aa\LL
.	.	16bb\
.	.	16ccc#y\JJ
4B\	.	16ddd\LL
.	.	16bb\
.	.	16ccc#y\
.	.	16ddd\JJ
4G#y\	5	8.dd\L
.	.	16dd\Jk
=71	=71	=71
4A\	.	(8dd\LT
.	.	8cc#y\J)
4r	.	16r
.	.	16ee\LL
.	.	16ff#y\
.	.	16gg#y\JJ
4C#y/	6	16aa\LL
.	.	16cc#y\
.	.	16dd\
.	.	16ee\JJ
4AA/	.	8.gn/L
.	.	16g/Jk
!!LO:LB:g=original
=72	=72	=72
4D\	.	(8gn/LT
.	.	8f#y/J)
4r	.	16r
.	.	16dd\LL
.	.	16ee\
.	.	16ff#y\JJ
4F#y\	#	16a#X/LL
.	.	16a#y/
.	.	16b/
.	.	16cc#y/JJ
4AA#X/	5	8.e/L
.	.	16e/Jk
=73	=73	=73
4BB/	.	(8e/LT
.	.	8d/J)
4B\	.	16r
.	.	16dd\LL
.	.	16ee\
.	.	16ff#y\JJ
4E\	n	16ggn\LL
.	.	16ccn\
.	.	16cc\
.	.	16aa#X\JJ
4F#y\	#	16aa#y\LL
.	.	16ee\
.	.	16ee\
.	.	16aa#X\JJ
=74	=74	=74
4G#y\	.	8bb\L
.	.	8b\J
8r	.	16r
.	.	16cccn\LL
8E\	.	16ccc\
.	.	16bb\JJ
8F#y\L	#	16aa#X\LL
.	.	16aa#y\
16D\L	6	16bb\
16E\JJ	.	16dd\JJ
8F#y/L	5 4	8.cc#y\Lt
8FF#y/J	#	.
.	.	16b\Jk
=75	=75	=75
4BB/	.	4b\
4EE#X/	7 5	16r
.	.	16dd\LL
.	.	16cc#y\
.	.	16b\JJ
8FF#y/L	n	8a/L
8BB/J	6 5	16g#y/L
.	.	16f#y/JJ
4C#y/	5 4	8.e#X/Lt
.	X #	.
.	.	16f#y/Jk
=76	=76	=76
1FF#y/;	.	1f#y/;
==	==	==
*-	*-	*-
!!!SMS: RV 31 / Estienne Roger, Amsterdam [facs.]
!!!ENC: Fran Bennion; rev. E Correia (4/21)
!!!END: 2004/11/20
!!!ONB: Converted from MuseData with musedata2hum on Sat May 11 12:07:51 2024
!!!YEM: (C) 2004, 2004 Center for Computer Assisted Research in the Humanities.
!!!system-decoration: [(s1,s2)]
!!!URL-info: https://wiki.ccarh.org/wiki/MuseData:_Antonio_Vivaldi#Op._2:_Sonate_a_violino_e_basso_per_il_cembalo
!!!URL-pdf: https://pdf.musedata.org/vivaldi-op02-no02.pdf#page=2 MuseData edition
!!!URL-pdf: http://conquest.imslp.info/files/imglnks/usimg/b/b7/IMSLP99075-PMLP183164-Vivaldi_-_Sonatas_Op2.pdf#page=6 Estienne Roger Amsterdam: Estienne Roger, No.2, n.d.[1711].
!!!URL-youtube: https://www.youtube.com/watch?v=SiijZmW9jKM&t=63s L'Arte dell'Arco (Corrente: Allegro)
!!!URL-youtube: https://www.youtube.com/watch?v=SiijZmW9jKM&t=176s L'Arte dell'Arco (Adagio)
!!!title: @{OTL}, mov. @{OMV}
!!!filter-chint: chint -mid
!!!EEV: 2024/05/11
!!!source-file: https://bitbucket.org/musedata/vivaldi/src/master/roger/op2/no02/stage2/02/01
!!!source-file: https://bitbucket.org/musedata/vivaldi/src/master/roger/op2/no02/stage2/02/02
